(
WFSPrePanSynthDefs.generateAll;
WFSArrayPanSynthDefs.generateAll( { |defs| d = defs } ); // takes apx 30s, watch post window
WFS.writeAuxSpeakersDef(112, [54, 81, 24, 111, 67, 11, 39, 96], 200, [0.001,0.00084,0.001,0.00093,0,0,0.0009,0.0009]);
)
